public/images/water.svg

<svg height="114" viewBox="0 0 114 114" width="114" xmlns="http://www.w3.org/2000/svg"><path d="m114 0h-114v114h114zm0 0h-114v114h114zm-114 114h114v-114h-114z" fill="none"/><path d="m68.885 29.187-26.885-26.837-26.885 26.837a38 38 0 1 0 53.77 53.723 38.015 38.015 0 0 0 0-53.723zm-55.385 28.501c.048-9.5 2.945-15.533 8.36-20.9l20.14-20.568 20.14 20.805c5.415 5.32 8.312 11.162 8.36 20.662z" fill="#fff" transform="translate(15 8.812)"/></svg>

<svg id="opacity-24px" xmlns="http://www.w3.org/2000/svg" width="114" height="114" viewBox="0 0 114 114">
  <path id="Path_6299" data-name="Path 6299" d="M114,0H0V114H114Zm0,0H0V114H114ZM0,114H114V0H0Z" fill="none"/>
  <path id="Path_6300" data-name="Path 6300" d="M68.885,29.187,42,2.35,15.115,29.187A38,38,0,1,0,68.885,82.91a38.015,38.015,0,0,0,0-53.723ZM13.5,57.688c.048-9.5,2.945-15.533,8.36-20.9L42,16.22,62.14,37.025c5.415,5.32,8.312,11.162,8.36,20.662Z" transform="translate(15 8.812)" fill="#fff"/>
</svg>
